mobile/24/svg/experiments-24.svg

<svg width="24" height="24" viewBox="0 0 24 24" fill="none" xmlns="http://www.w3.org/2000/svg">
<path d="M16.7499 6C16.0599 6 15.4999 6.56 15.4999 7.25C15.4999 7.94 16.0599 8.5 16.7499 8.5C17.4399 8.5 17.9999 7.94 17.9999 7.25C17.9999 6.56 17.4399 6 16.7499 6Z" fill="black"/>
<path fill-rule="evenodd" clip-rule="evenodd" d="M11.9999 9.125C10.4121 9.125 9.12488 10.4122 9.12488 12C9.12488 13.5878 10.4121 14.875 11.9999 14.875C13.5877 14.875 14.8749 13.5878 14.8749 12C14.8749 10.4122 13.5877 9.125 11.9999 9.125ZM10.8749 12C10.8749 11.3787 11.3786 10.875 11.9999 10.875C12.6212 10.875 13.1249 11.3787 13.1249 12C13.1249 12.6213 12.6212 13.125 11.9999 13.125C11.3786 13.125 10.8749 12.6213 10.8749 12Z" fill="black"/>
<path d="M5.99988 16.75C5.99988 17.44 6.55988 18 7.24988 18C7.93988 18 8.49988 17.44 8.49988 16.75C8.49988 16.06 7.93988 15.5 7.24988 15.5C6.55988 15.5 5.99988 16.06 5.99988 16.75Z" fill="black"/>
<path fill-rule="evenodd" clip-rule="evenodd" d="M21.0349 9.616C20.7809 10.401 20.4239 11.201 19.9879 12C20.4239 12.799 20.7809 13.599 21.0369 14.384C21.8519 16.904 21.5879 19.004 20.2969 20.296C19.4979 21.096 18.3889 21.501 17.0629 21.501C16.2459 21.501 15.3459 21.346 14.3849 21.036C13.5999 20.782 12.7999 20.425 12.0009 19.989C11.2019 20.425 10.4009 20.782 9.61693 21.036C8.65593 21.347 7.75593 21.501 6.93893 21.501C5.61293 21.501 4.50493 21.095 3.70493 20.296C2.41293 19.003 2.14993 16.903 2.96493 14.384C3.21893 13.599 3.57593 12.799 4.01193 12C3.57593 11.201 3.21893 10.401 2.96493 9.616C2.14993 7.097 2.41293 4.997 3.70493 3.705C4.99693 2.412 7.09493 2.15 9.61593 2.965C10.4009 3.219 11.2009 3.576 11.9999 4.012C12.7989 3.576 13.5989 3.218 14.3829 2.964C16.9029 2.15 19.0009 2.412 20.2949 3.704C21.5869 4.997 21.8499 7.096 21.0349 9.616ZM6.95293 4.253C6.09393 4.253 5.39893 4.484 4.94193 4.942C4.14993 5.734 4.03593 7.242 4.62793 9.078C4.75393 9.467 4.91593 9.863 5.09593 10.261C5.77593 9.294 6.56593 8.348 7.45693 7.457C8.34793 6.566 9.29393 5.777 10.2599 5.097C9.86293 4.917 9.46693 4.755 9.07693 4.629C8.30093 4.378 7.58293 4.253 6.95293 4.253ZM14.9229 19.371C16.7569 19.965 18.2649 19.852 19.0579 19.058C19.8499 18.266 19.9639 16.758 19.3719 14.922C19.2459 14.533 19.0839 14.137 18.9039 13.739C18.2239 14.706 17.4349 15.651 16.5439 16.542L16.5429 16.543C15.6519 17.434 14.7059 18.223 13.7399 18.903C14.1369 19.083 14.5329 19.245 14.9229 19.371ZM18.9029 10.26C19.0829 9.863 19.2449 9.467 19.3709 9.077C19.9639 7.242 19.8499 5.734 19.0569 4.941C18.5999 4.483 17.9049 4.252 17.0459 4.252C16.4169 4.252 15.6989 4.377 14.9219 4.628C14.5329 4.754 14.1369 4.916 13.7389 5.096C14.0035 5.28225 14.2633 5.48887 14.5233 5.69572C14.5788 5.73987 14.6343 5.78403 14.6899 5.828C14.4099 6.232 14.2429 6.721 14.2429 7.249C14.2429 7.423 14.2609 7.593 14.2949 7.757C13.5479 7.106 12.7779 6.525 11.9999 6.036C10.8659 6.75 9.74293 7.645 8.69393 8.694C7.64493 9.743 6.74993 10.866 6.03593 12C6.52793 12.781 7.11093 13.555 7.76593 14.305C7.59893 14.27 7.42693 14.25 7.24993 14.25C6.72393 14.25 6.23593 14.416 5.83293 14.695C5.79425 14.6463 5.75546 14.5977 5.71667 14.5491C5.50275 14.2811 5.28909 14.0134 5.09693 13.74C4.91693 14.137 4.75493 14.533 4.62893 14.923C4.03493 16.758 4.14893 18.266 4.94193 19.058C5.73393 19.851 7.23993 19.965 9.07693 19.371C9.46593 19.245 9.86193 19.083 10.2599 18.903C9.99185 18.7132 9.72794 18.5033 9.46414 18.2934C9.41107 18.2512 9.35802 18.209 9.30493 18.167C9.58393 17.764 9.74993 17.277 9.74993 16.75C9.74993 16.573 9.72993 16.401 9.69593 16.234C10.4459 16.888 11.2199 17.472 12.0009 17.963C13.1349 17.25 14.2569 16.355 15.3059 15.306L15.3069 15.305C16.3549 14.257 17.2499 13.134 17.9639 12C17.4729 11.22 16.8909 10.447 16.2369 9.698C16.3999 9.732 16.5699 9.75 16.7429 9.75C17.2709 9.75 17.7599 9.583 18.1649 9.301C18.2053 9.352 18.2459 9.40298 18.2865 9.45397C18.4989 9.72087 18.7115 9.98797 18.9029 10.26Z" fill="black"/>
</svg>

<svg width="24" height="24" fill="none" xmlns="http://www.w3.org/2000/svg"><path d="M16.75 6a1.25 1.25 0 1 0 0 2.5 1.25 1.25 0 0 0 0-2.5z" fill="#000"/><path fill-rule="evenodd" clip-rule="evenodd" d="M12 9.125a2.875 2.875 0 1 0 0 5.75 2.875 2.875 0 0 0 0-5.75zM10.875 12a1.125 1.125 0 1 1 2.25 0 1.125 1.125 0 0 1-2.25 0z" fill="#000"/><path d="M6 16.75a1.25 1.25 0 1 0 2.5 0 1.25 1.25 0 0 0-2.5 0z" fill="#000"/><path fill-rule="evenodd" clip-rule="evenodd" d="M21.035 9.616A14.057 14.057 0 0 1 19.988 12c.436.799.793 1.599 1.049 2.384.815 2.52.55 4.62-.74 5.912-.8.8-1.908 1.205-3.234 1.205-.817 0-1.717-.155-2.678-.465A14.057 14.057 0 0 1 12 19.989c-.8.436-1.6.793-2.384 1.047-.961.311-1.861.465-2.678.465-1.326 0-2.434-.406-3.234-1.205-1.292-1.293-1.555-3.393-.74-5.912.254-.785.61-1.585 1.047-2.384a14.057 14.057 0 0 1-1.047-2.384c-.815-2.519-.552-4.619.74-5.911 1.292-1.293 3.39-1.555 5.91-.74.786.254 1.586.611 2.385 1.047a14.09 14.09 0 0 1 2.383-1.048c2.52-.814 4.618-.552 5.912.74 1.292 1.293 1.555 3.392.74 5.912zM6.953 4.253c-.86 0-1.554.231-2.011.689-.792.792-.906 2.3-.314 4.136.126.389.288.785.468 1.183a21.376 21.376 0 0 1 5.164-5.164c-.397-.18-.793-.342-1.183-.468-.776-.251-1.494-.376-2.124-.376zm7.97 15.118c1.834.594 3.342.481 4.135-.313.792-.792.906-2.3.314-4.136a11.508 11.508 0 0 0-.468-1.183 21.31 21.31 0 0 1-2.36 2.803l-.001.001a21.375 21.375 0 0 1-2.803 2.36c.397.18.793.342 1.183.468zm3.98-9.111c.18-.397.342-.793.468-1.183.593-1.835.479-3.343-.314-4.136-.457-.458-1.152-.689-2.011-.689-.63 0-1.347.125-2.124.376-.39.126-.785.288-1.183.468.264.186.524.393.784.6l.167.132a2.487 2.487 0 0 0-.395 1.929A18.529 18.529 0 0 0 12 6.036a19.128 19.128 0 0 0-3.306 2.658A19.128 19.128 0 0 0 6.036 12a18.606 18.606 0 0 0 1.73 2.305 2.483 2.483 0 0 0-1.933.39 78.202 78.202 0 0 0-.116-.146 16.845 16.845 0 0 1-.62-.809c-.18.397-.342.793-.468 1.183-.594 1.835-.48 3.343.313 4.135.792.793 2.298.907 4.135.313.389-.126.785-.288 1.183-.468-.268-.19-.532-.4-.796-.61l-.16-.126a2.48 2.48 0 0 0 .392-1.933c.75.654 1.524 1.238 2.305 1.729a19.068 19.068 0 0 0 3.305-2.657v-.001A19.125 19.125 0 0 0 17.965 12a18.55 18.55 0 0 0-1.727-2.302 2.482 2.482 0 0 0 1.928-.397c.04.051.08.102.122.153.212.267.425.534.616.806z" fill="#000"/></svg>
